polaris-icons/icons/new-icons/ResourcesMajor.svg

<svg width="20" height="20" viewBox="0 0 20 20" fill="none" xmlns="http://www.w3.org/2000/svg">
<path fill-rule="evenodd" clip-rule="evenodd" d="M13.4697 5.03033C13.1768 4.73744 13.1768 4.26256 13.4697 3.96967C13.7626 3.67678 14.2374 3.67678 14.5303 3.96967L15.7974 5.23671C16.0622 5.5015 16.235 5.84423 16.2906 6.21455L17 10.9441V12.7502C17 14.5451 15.5449 16.0002 13.75 16.0002C11.9551 16.0002 10.5 14.5451 10.5 12.7502V12.288C10.168 12.2461 9.832 12.2461 9.5 12.288V12.7502C9.5 14.5451 8.04493 16.0002 6.25 16.0002C4.45507 16.0002 3 14.5451 3 12.7502V10.9437L3.7122 6.22639C3.7649 5.84975 3.93888 5.50046 4.20788 5.23146L5.46967 3.96967C5.76256 3.67678 6.23744 3.67678 6.53033 3.96967C6.82322 4.26256 6.82322 4.73744 6.53033 5.03033L5.26854 6.29212C5.2299 6.33076 5.20499 6.38098 5.19761 6.43512L5.19608 6.44575L4.62173 10.25L7.75007 10.2502C8.27045 10.2502 8.73777 10.4773 9.05831 10.8379C9.68138 10.7295 10.3186 10.7295 10.9417 10.8379C11.2622 10.4773 11.7295 10.2502 12.2499 10.2502L15.3791 10.25L14.8072 6.43706C14.7992 6.38416 14.7745 6.3352 14.7367 6.29737L13.4697 5.03033ZM12.25 11.7502L15.5 11.75V12.7502C15.5 13.7167 14.7165 14.5002 13.75 14.5002C12.7835 14.5002 12 13.7167 12 12.7502V12.0002C12 11.8621 12.1119 11.7502 12.25 11.7502ZM7.75001 11.7502L4.5 11.75V12.7502C4.5 13.7167 5.2835 14.5002 6.25 14.5002C7.2165 14.5002 8 13.7167 8 12.7502V12.0002C8 11.8621 7.88808 11.7502 7.75001 11.7502Z" fill="#4A4A4A"/>
</svg>

<svg viewBox="0 0 20 20" xmlns="http://www.w3.org/2000/svg"><path fill-rule="evenodd" d="M13.47 5.03a.75.75 0 0 1 1.06-1.06l1.267 1.267c.265.264.438.607.494.978l.709 4.73v1.805a3.25 3.25 0 0 1-6.5 0v-.462a3.993 3.993 0 0 0-1 0v.462a3.25 3.25 0 0 1-6.5 0v-1.806l.712-4.718a1.75 1.75 0 0 1 .496-.995l1.262-1.261a.75.75 0 0 1 1.06 1.06l-1.261 1.262a.25.25 0 0 0-.071.143l-.002.01-.574 3.805h3.128c.52 0 .988.227 1.308.588a5.494 5.494 0 0 1 1.884 0c.32-.36.787-.588 1.308-.588h3.13l-.573-3.813a.25.25 0 0 0-.07-.14l-1.267-1.267Zm-1.22 6.72h3.25v1a1.75 1.75 0 1 1-3.5 0v-.75a.25.25 0 0 1 .25-.25Zm-4.5 0h-3.25v1a1.75 1.75 0 1 0 3.5 0v-.75a.25.25 0 0 0-.25-.25Z" fill="#5C5F62"/></svg>
